X:11723
T:New Drops of Brandy. JC.161
M:9/8
L:1/8
Q:180
S:John Clare,Poet,Helpstone (1793-1864)
R:Slip Jig
O:England
A:Northamptonshire
N:
Z:P Headford
K:G
d2c BGB BGB|d2c BGB cBA|d2c BGB BGB|cBc "crot"A3 cBA:|!
|:G2g gdB gdB|G2g gdB cBA|G2g gdB gdB|cBc A2B cBA:|]


